images/icon/menu_top3.svg

<svg width="42" height="20" viewBox="0 0 42 20" fill="none" xmlns="http://www.w3.org/2000/svg">
<path d="M4.72719 10.1H2.40719V9H8.34719V10.1H6.02719V16H4.72719V10.1ZM12.4952 16.1C11.7818 16.1 11.1385 15.9467 10.5652 15.64C9.99182 15.3267 9.54182 14.8967 9.21516 14.35C8.88849 13.7967 8.72516 13.18 8.72516 12.5C8.72516 11.82 8.88849 11.2067 9.21516 10.66C9.54182 10.1067 9.99182 9.67667 10.5652 9.37C11.1385 9.05667 11.7818 8.9 12.4952 8.9C13.2085 8.9 13.8518 9.05667 14.4252 9.37C14.9985 9.67667 15.4485 10.1033 15.7752 10.65C16.1018 11.1967 16.2652 11.8133 16.2652 12.5C16.2652 13.1867 16.1018 13.8033 15.7752 14.35C15.4485 14.8967 14.9985 15.3267 14.4252 15.64C13.8518 15.9467 13.2085 16.1 12.4952 16.1ZM12.4952 14.96C12.9618 14.96 13.3818 14.8567 13.7552 14.65C14.1285 14.4367 14.4218 14.1433 14.6352 13.77C14.8485 13.39 14.9552 12.9667 14.9552 12.5C14.9552 12.0333 14.8485 11.6133 14.6352 11.24C14.4218 10.86 14.1285 10.5667 13.7552 10.36C13.3818 10.1467 12.9618 10.04 12.4952 10.04C12.0285 10.04 11.6085 10.1467 11.2352 10.36C10.8618 10.5667 10.5685 10.86 10.3552 11.24C10.1418 11.6133 10.0352 12.0333 10.0352 12.5C10.0352 12.9667 10.1418 13.39 10.3552 13.77C10.5685 14.1433 10.8618 14.4367 11.2352 14.65C11.6085 14.8567 12.0285 14.96 12.4952 14.96ZM20.5231 9C21.1298 9 21.6565 9.1 22.1031 9.3C22.5565 9.5 22.9031 9.78667 23.1431 10.16C23.3831 10.5333 23.5031 10.9767 23.5031 11.49C23.5031 11.9967 23.3831 12.44 23.1431 12.82C22.9031 13.1933 22.5565 13.48 22.1031 13.68C21.6565 13.88 21.1298 13.98 20.5231 13.98H18.9431V16H17.6431V9H20.5231ZM20.4631 12.88C21.0298 12.88 21.4598 12.76 21.7531 12.52C22.0465 12.28 22.1931 11.9367 22.1931 11.49C22.1931 11.0433 22.0465 10.7 21.7531 10.46C21.4598 10.22 21.0298 10.1 20.4631 10.1H18.9431V12.88H20.4631ZM27.2325 11.89C27.8792 11.97 28.3725 12.19 28.7125 12.55C29.0525 12.91 29.2225 13.36 29.2225 13.9C29.2225 14.3067 29.1192 14.6767 28.9125 15.01C28.7058 15.3433 28.3925 15.61 27.9725 15.81C27.5592 16.0033 27.0525 16.1 26.4525 16.1C25.9525 16.1 25.4692 16.03 25.0025 15.89C24.5425 15.7433 24.1492 15.5433 23.8225 15.29L24.3825 14.28C24.6358 14.4933 24.9425 14.6633 25.3025 14.79C25.6692 14.91 26.0458 14.97 26.4325 14.97C26.8925 14.97 27.2525 14.8767 27.5125 14.69C27.7792 14.4967 27.9125 14.2367 27.9125 13.91C27.9125 13.5833 27.7858 13.33 27.5325 13.15C27.2858 12.9633 26.9058 12.87 26.3925 12.87H25.7525V11.98L27.3425 10.09H24.1625V9H28.9325V9.87L27.2325 11.89Z" fill="#FFB200"/>
<g clip-path="url(#clip0)">
<g clip-path="url(#clip1)">
<path d="M36.6289 10.0967L30.411 6.97688C30.3157 6.9291 30.252 6.83754 30.236 6.73174C30.02 5.11917 31.1181 2.77376 31.2854 2.42619C31.292 2.41286 31.2987 2.39953 31.3054 2.3862C31.3847 2.22813 31.5773 2.16265 31.7373 2.24292C31.8953 2.32223 31.9589 2.51384 31.8815 2.67287C31.8806 2.67477 31.872 2.69191 31.8567 2.72238C31.4715 3.5518 31.8141 4.54613 32.6387 4.95987C33.4786 5.38126 34.5024 5.04156 34.9238 4.2017C35.0031 4.04364 35.1976 3.97911 35.3557 4.05842L36.0146 4.38903C36.1727 4.46834 36.2372 4.66282 36.1579 4.82089C35.7365 5.66074 36.0762 6.6846 36.9161 7.10599C37.7407 7.51973 38.7436 7.1981 39.1782 6.39353C39.1926 6.36496 39.2012 6.34782 39.2012 6.34782C39.2805 6.18975 39.474 6.12713 39.6321 6.20644C39.7901 6.28575 39.8547 6.48023 39.7754 6.6383C39.7687 6.65163 39.762 6.66496 39.7553 6.67829C39.5776 7.01822 38.3528 9.30247 36.931 10.0933C36.8366 10.1437 36.7241 10.1445 36.6289 10.0967Z" fill="#FFE141"/>
<path d="M39.6329 6.20444C39.6329 6.20444 39.631 6.20349 39.6329 6.20444C39.4749 6.12513 39.2813 6.18775 39.202 6.34582C39.2011 6.34773 39.1934 6.36296 39.1781 6.39343C38.7425 7.19991 37.7406 7.51964 36.916 7.1059C36.0761 6.68451 35.7364 5.66064 36.1578 4.82079C36.2371 4.66273 36.1726 4.46825 36.0145 4.38894L35.6851 4.22363L33.5208 8.53716L36.6288 10.0966C36.724 10.1444 36.8355 10.1407 36.9299 10.0903C38.3518 9.29951 39.5756 7.01717 39.7542 6.67533C39.7609 6.662 39.7676 6.64867 39.7743 6.63534C39.8536 6.47727 39.791 6.28375 39.6329 6.20444Z" fill="#FFB200"/>
<path d="M36.0835 3.43027C35.6741 3.22483 35.1736 3.39089 34.9682 3.80034C34.7627 4.2098 34.9288 4.71029 35.3382 4.91573C35.7477 5.12116 36.2482 4.95511 36.4536 4.54566C36.6591 4.1362 36.4911 3.63476 36.0835 3.43027Z" fill="#FFB200"/>
<path d="M36.0835 3.42969L35.3391 4.91324C35.7486 5.11867 36.2491 4.95262 36.4545 4.54317C36.66 4.13371 36.491 3.63417 36.0835 3.42969Z" fill="#F59A2A"/>
<path d="M31.7764 2.16514C31.367 1.9597 30.8665 2.12576 30.661 2.53521C30.4556 2.94466 30.6217 3.44515 31.0311 3.65059C31.4406 3.85603 31.941 3.68997 32.1465 3.28052C32.3519 2.87107 32.1859 2.37058 31.7764 2.16514Z" fill="#FFB200"/>
<path d="M39.6705 6.12559C39.261 5.92015 38.7605 6.0862 38.5551 6.49566C38.3496 6.90511 38.5157 7.4056 38.9251 7.61104C39.3346 7.81648 39.8351 7.65042 40.0405 7.24097C40.246 6.83152 40.0799 6.33102 39.6705 6.12559Z" fill="#F59A2A"/>
<path d="M36.1559 11.04L29.9379 7.92019C29.7798 7.84088 29.7153 7.64641 29.7946 7.48834L30.2246 6.63135L37.0177 10.0397L36.5877 10.8967C36.5084 11.0548 36.3139 11.1193 36.1559 11.04Z" fill="#FFB200"/>
<path d="M33.0478 9.4805L36.1558 11.0399C36.3139 11.1192 36.5084 11.0547 36.5877 10.8966L37.0177 10.0396L33.6221 8.33594L33.0478 9.4805Z" fill="#F59A2A"/>
</g>
</g>
<defs>
<clipPath id="clip0">
<rect width="11" height="11" fill="white" transform="translate(31.9331) rotate(26.6448)"/>
</clipPath>
<clipPath id="clip1">
<rect width="11" height="11" fill="white" transform="translate(31.9331) rotate(26.6448)"/>
</clipPath>
</defs>
</svg>

<svg width="42" height="20" fill="none" xmlns="http://www.w3.org/2000/svg"><path d="M4.727 10.1h-2.32V9h5.94v1.1h-2.32V16h-1.3v-5.9zm7.768 6c-.713 0-1.356-.153-1.93-.46a3.49 3.49 0 01-1.35-1.29 3.57 3.57 0 01-.49-1.85c0-.68.163-1.293.49-1.84a3.398 3.398 0 011.35-1.29 3.964 3.964 0 011.93-.47c.714 0 1.357.157 1.93.47a3.42 3.42 0 011.35 1.28c.327.547.49 1.163.49 1.85s-.163 1.303-.49 1.85a3.49 3.49 0 01-1.35 1.29c-.573.307-1.216.46-1.93.46zm0-1.14c.467 0 .887-.103 1.26-.31.373-.213.667-.507.88-.88.213-.38.32-.803.32-1.27 0-.467-.107-.887-.32-1.26a2.235 2.235 0 00-.88-.88 2.495 2.495 0 00-1.26-.32 2.5 2.5 0 00-1.26.32c-.373.207-.666.5-.88.88-.213.373-.32.793-.32 1.26 0 .467.107.89.32 1.27.213.373.507.667.88.88.373.207.793.31 1.26.31zM20.523 9c.607 0 1.134.1 1.58.3.453.2.8.487 1.04.86s.36.817.36 1.33c0 .507-.12.95-.36 1.33-.24.373-.587.66-1.04.86-.447.2-.973.3-1.58.3h-1.58V16h-1.3V9h2.88zm-.06 3.88c.567 0 .997-.12 1.29-.36.294-.24.44-.583.44-1.03 0-.447-.146-.79-.44-1.03-.293-.24-.723-.36-1.29-.36h-1.52v2.78h1.52zm6.77-.99c.646.08 1.14.3 1.48.66.34.36.51.81.51 1.35 0 .407-.104.777-.31 1.11-.207.333-.52.6-.94.8-.414.193-.92.29-1.52.29-.5 0-.984-.07-1.45-.21a3.781 3.781 0 01-1.18-.6l.56-1.01c.253.213.56.383.92.51.366.12.743.18 1.13.18.46 0 .82-.093 1.08-.28a.915.915 0 00.4-.78.879.879 0 00-.38-.76c-.247-.187-.627-.28-1.14-.28h-.64v-.89l1.59-1.89h-3.18V9h4.77v.87l-1.7 2.02z" fill="#FFB200"/><g clip-path="url(#clip0)"><g clip-path="url(#clip1)"><path d="M36.629 10.097l-6.218-3.12a.326.326 0 01-.175-.245c-.216-1.613.882-3.958 1.05-4.306l.02-.04a.321.321 0 01.575.287l-.024.05a1.704 1.704 0 003.067 1.479.323.323 0 01.432-.144l.659.331c.158.08.222.274.143.432a1.703 1.703 0 003.02 1.573l.023-.046a.321.321 0 01.574.29l-.02.04c-.177.34-1.402 2.624-2.824 3.415a.328.328 0 01-.302.004z" fill="#FFE141"/><path d="M39.633 6.204s-.002 0 0 0a.321.321 0 00-.431.142l-.024.047a1.703 1.703 0 01-3.02-1.573.323.323 0 00-.143-.431l-.33-.165-2.164 4.313 3.108 1.56a.326.326 0 00.3-.007c1.423-.79 2.647-3.073 2.825-3.415l.02-.04a.321.321 0 00-.141-.43z" fill="#FFB200"/><path d="M36.084 3.43a.832.832 0 00-.746 1.486.832.832 0 00.745-1.486z" fill="#FFB200"/><path d="M36.084 3.43l-.745 1.483c.41.206.91.04 1.116-.37a.832.832 0 00-.371-1.113z" fill="#F59A2A"/><path d="M31.776 2.165a.832.832 0 00-.745 1.486.832.832 0 00.745-1.486z" fill="#FFB200"/><path d="M39.67 6.126a.832.832 0 00-.745 1.485.832.832 0 00.745-1.485z" fill="#F59A2A"/><path d="M36.156 11.04l-6.218-3.12a.323.323 0 01-.143-.432l.43-.857 6.793 3.409-.43.857a.323.323 0 01-.432.143z" fill="#FFB200"/><path d="M33.048 9.48l3.108 1.56c.158.08.352.015.432-.143l.43-.857-3.396-1.704-.574 1.144z" fill="#F59A2A"/></g></g><defs><clipPath id="clip0"><path fill="#fff" transform="rotate(26.645 15.967 67.426)" d="M0 0h11v11H0z"/></clipPath><clipPath id="clip1"><path fill="#fff" transform="rotate(26.645 15.967 67.426)" d="M0 0h11v11H0z"/></clipPath></defs></svg>
